!!!!SEGMENT: Distler_Jahrkreis_47_Christ-der-du-bist-der-helle-Tag.krn
!!!COM: Distler, Hugo
!!!CDT: 1908-1942
!!!OPR@@DE: Der Jahrkreis
!!!OPR@EN: The Year Cycle
!!!OTL@@DE: Christ, der du bist der helle Tag
!!!OTL@EN: Lord Christ, You are the Light of day
!!!OPS: 5
!!!ONM: 47
**kern	**text	**kern	**text	**kern	**text
*part3	*part3	*part2	*part2	*part1	*part1
*staff3	*staff3	*staff2	*staff2	*staff1	*staff1
*Ibass	*	*Ialto	*	*Isoprn	*
*clefF4	*	*clefG2	*	*clefG2	*
*k[]	*	*k[]	*	*k[]	*
*M4/4	*	*M4/4	*	*M4/4	*
*MM120	*	*MM120	*	*MM120	*
=1	=1	=1	=1	=1	=1
2G	Christ,	4B-	Christ,	2g	Christ,
.	.	(4.B-	der	.	.
4.F	der	.	.	4g	der
.	.	8c)	.	.	.
.	.	4d	du	4g	du
8F	du	.	.	.	.
=2	=2	=2	=2	=2	=2
4E-	bist	4.e-	bist	4b-	bist
4D	der	.	.	4g	der
.	.	8f	der	.	.
4C	hel-	4g	hel-	4b-	hel-
4C	le	4a	le	4cc	le
=3	=3	=3	=3	=3	=3
2G	Tag,	4bn,	Tag,	4dd,	Tag,
.	.	4g	bor	4dd	vor
2r	.	4.b-	dir	4dd	dir
.	.	.	.	4dd	die
.	.	8b-	die	.	.
=4	=4	=4	=4	=4	=4
1r	.	4a-	Nacht	2ff	Nacht
.	.	4g	nicht	.	.
.	.	(4.cc	blei-	4ee-	nicht
.	.	.	.	([4dd	blei-
.	.	8b-	.	.	.
!!LO:LB:g=original
=5	=5	=5	=5	=5	=5
1r	.	4g	.	4dd]	.
.	.	2a-)	.	8ccL	.
.	.	.	.	8b-J	.
.	.	.	.	4cc)	.
.	.	4a-	ben	4cc	ben
=6	=6	=6	=6	=6	=6
4r	.	2g,	mag,	2b-,	mag,
4E-	du	.	.	.	.
4E-	leuch-	4g	du	4b-	du
4G	test	([4g	leuch-	([4b-	leuch-
=7	=7	=7	=7	=7	=7
(4.F	uns	8gL]	.	8b-L]	.
.	.	8anJ)	.	8cc)	.
.	.	4b-	test	4dd	test
8E-)	.	.	.	.	.
4F	vom	8a	uns	4cc	uns
.	.	8cc	vom	.	.
4G	Va-	[4g	Va-	4b-	vom
=8	=8	=8	=8	=8	=8
2F,	ter	4g]	.	4cc	Va-
.	.	4a	ter	4cc	ter
4B-,	her	4b-,	her	4dd,	her
4A	und	4cc	und	4dd	und
!!LO:LB:g=original
=9	=9	=9	=9	=9	=9
*M3/4	*	*M3/4	*	*M3/4	*
2G	bist	2.b-	bist,	2dd	bist
4F	des	.	.	4dd	des
=10	=10	=10	=10	=10	=10
2E-	Lich-	4b-	und	2gg	Lich-
.	.	4b-	bist	.	.
4BB-	tes	4b-	des	4ff	tes
=11	=11	=11	=11	=11	=11
*M4/4	*	*M4/4	*	*M4/4	*
(2.C	Pre-	(4.b-	Lich-	(4.ee-	Pre-
.	.	8aL	.	8dd	.
.	.	8g	.	4cc	.
.	.	8fJ	.	.	.
4G	.	4g)	.	[4b-	.
=12	=12	=12	=12	=12	=12
2D)	.	4g	tes	8b-L]	.
.	.	.	.	8b-	.
.	.	(4.f	Pre-	8a	.
.	.	.	.	8gJ	.
*	*	*	*	*^	*
2D	di-	.	.	4a)	4a	.
.	.	8g)	.	.	.	.
.	.	4a	di-	4a	4dd	di-
=13	=13	=13	=13	=13	=13	=13
1G	ger.	1bn	ger.	1dd	1g	ger-
*	*	*	*	*v	*v	*
==	==	==	==	==	==
*-	*-	*-	*-	*-	*-
!!!YOR: Bärenreiter-Ausgabe 676
!!!YOY: 1933
!!!EFL: 47/52
!!!URL-github: https://github.com/LucasHofmann/distler/blob/main/Jahrkreis/Distler_Jahrkreis_47_Christ-der-du-bist-der-helle-Tag.krn
!!!URL-pdf: https://imslp.eu/files/imglnks/euimg/7/7d/IMSLP834545-PMLP518834-5-jahrkreis-EA--original-paper-600dpi.pdf#page=86 First edition, Kassel: Bärenreiter, 1933. Plate BA 676.
!!!URL-imslp: https://imslp.org/wiki/Der_Jahrkreis,_Op.5_(Distler,_Hugo)#IMSLP834545
!!!system-decoration: [(s1,s2,s3)]
!!!ENC: Lucas Hofmann
!!!END: 2023/11/03
!!!title: @{OPR@@DE}, Op. @{OPS}, Nr. @{ONM}. <i>@{OTL@@DE}</i>
